svgs/light/hose.svg

<svg xmlns="http://www.w3.org/2000/svg" viewBox="0 0 448 512"><!--! Font Awesome Pro 6.1.1 by @fontawesome - https://fontawesome.com License - https://fontawesome.com/license (Commercial License) Copyright 2022 Fonticons, Inc. --><path d="M152 112H288C288 120.8 295.2 128 304 128S320 120.8 320 112V110.1l113.1-14.24C441.1 94.88 448 88.06 448 80v-32c0-8.064-6.016-14.88-14.02-15.87L320 17.89V16C320 7.168 312.8 0 304 0S288 7.168 288 16H152C68.06 16 0 84.06 0 168C0 216.8 22.98 260.2 58.69 288H48C21.5 288 0 309.5 0 336c0 12.29 4.609 23.52 12.22 32C4.609 376.5 0 387.7 0 400s4.609 23.52 12.22 32C4.609 440.5 0 451.7 0 464C0 490.5 21.5 512 48 512h352c26.5 0 48-21.5 48-48c0-12.29-4.607-23.52-12.22-32C443.4 423.5 448 412.3 448 400s-4.607-23.52-12.22-32C443.4 359.5 448 348.3 448 336s-4.607-23.52-12.22-32C443.4 295.5 448 284.3 448 272C448 245.5 426.5 224 400 224H152C121.1 224 96 198.9 96 168S121.1 112 152 112zM320 50.11l96 12v3.777l-96 12V50.11zM400 480h-352C39.17 480 32 472.8 32 464S39.17 448 48 448h352c8.832 0 16 7.168 16 16S408.8 480 400 480zM400 416h-352C39.17 416 32 408.8 32 400S39.17 384 48 384h352c8.832 0 16 7.168 16 16S408.8 416 400 416zM400 352h-352C39.17 352 32 344.8 32 336S39.17 320 48 320h103.9C151.1 320 151.1 320 152 320h248c8.832 0 16 7.168 16 16S408.8 352 400 352zM152 256h248C408.8 256 416 263.2 416 272S408.8 288 400 288H152C151.1 288 151.1 288 151.9 288C85.7 287.1 32 234.3 32 168S85.73 48 152 48H288v32H152C103.4 80 64 119.4 64 168S103.4 256 152 256z"/></svg>

<svg xmlns="http://www.w3.org/2000/svg" viewBox="0 0 448 512"><!--! Font Awesome Pro 6.4.2 by @fontawesome - https://fontawesome.com License - https://fontawesome.com/license (Commercial License) Copyright 2023 Fonticons, Inc. --><path d="M288 112c0 8.8 7.2 16 16 16s16-7.2 16-16v-1.9l96.1-12c1 7.8 7.7 13.9 15.9 13.9c8.8 0 16-7.2 16-16V94.1 80 48 33.9 32c0-8.8-7.2-16-16-16c-8.1 0-14.8 6.1-15.9 13.9L320 17.9V16c0-8.8-7.2-16-16-16s-16 7.2-16 16V64v48zm32-61.9l96 12v3.8l-96 12V64 50.1zM48 448H400c8.8 0 16 7.2 16 16s-7.2 16-16 16H48c-8.8 0-16-7.2-16-16s7.2-16 16-16zM12.2 432C4.6 440.5 0 451.7 0 464c0 26.5 21.5 48 48 48H400c26.5 0 48-21.5 48-48c0-12.3-4.6-23.5-12.2-32c7.6-8.5 12.2-19.7 12.2-32s-4.6-23.5-12.2-32c7.6-8.5 12.2-19.7 12.2-32s-4.6-23.5-12.2-32c7.6-8.5 12.2-19.7 12.2-32c0-26.5-21.5-48-48-48H152c-30.9 0-56-25.1-56-56s25.1-56 56-56H256V80H152c-48.6 0-88 39.4-88 88s39.4 88 88 88H400c8.8 0 16 7.2 16 16s-7.2 16-16 16H152C85.7 288 32 234.3 32 168S85.7 48 152 48H256V16H152C68.1 16 0 84.1 0 168c0 48.8 23 92.2 58.7 120H48c-26.5 0-48 21.5-48 48c0 12.3 4.6 23.5 12.2 32C4.6 376.5 0 387.7 0 400s4.6 23.5 12.2 32zM152 320H400c8.8 0 16 7.2 16 16s-7.2 16-16 16H48c-8.8 0-16-7.2-16-16s7.2-16 16-16H152zM48 384H400c8.8 0 16 7.2 16 16s-7.2 16-16 16H48c-8.8 0-16-7.2-16-16s7.2-16 16-16z"/></svg>
